X:1
T:How to Train Your Dragon Medley
T:How to Train Your Dragon Medley
T:Piano Arrangement
T:John Powell
C:John Powell
%%score { ( 1 3 ) | 2 }
L:1/8
Q:1/4=100
M:3/4
K:B
V:1 treble nm="Piano" snm="Pno."
V:3 treble 
V:2 bass 
V:1
!mp! Bc | e2{fe} d3 f | d6 | c2 B3 d | F6 | c2 d2 f2 | !arpeggio![dgb]6 | b2{c'b} c'3 d' | c'6 | %9
 f2 g2 b2 | [Bg]f f2 d2 | Bc c3 f | dc c4 |!<(! B,2 C2 E2!<)! |[M:2/4] D3 F |[M:3/4] D6 | %16
 C2 B,3 D | F,6 | C2 D2 F2 | BB, DB, GB, | [B,B]2 [Cc]3 [Dd] | [CBc]4 A2 | F2 G2 B2 | %23
 !arpeggio![eg]f f2 d2 | B3 c f2 | dc c4 | [F,F][G,G] [G,G]4 | [Ff][Gg] [Gg]4 | [Bdf]b [Beg]4 | %29
!>(!!8va(! [Bb]2 [cc']2 [dd']2!>)! |[K:Ab]!p! !>!a'/a/e'/a/ c'/a/!>!e'/a/ !>!a'/a/!>!b'/a/ | %31
 !>!g'/g/e'/g/ b/g/!>!e'/g/ !>!g'/g/!>!a'/g/ | !>!f'/f/d'/f/ a/f/d'/f/ !>!f'/f/!>!e'/f/ | %33
 !>!e'/e/!>!d'/e/ !>!d'/e/!<(!!>!c'/e/ !>!b/e/!>!a/e/!<)! | %34
!mp! !>!a'/a/e'/a/ c'/a/!>!e'/a/ !>!a'/a/!>!b'/a/ | !>!g'/g/e'/g/ b/g/!>!e'/g/ !>!g'/g/!>!a'/g/ | %36
 !>!f'/f/d'/f/ a/f/d'/f/ !>!f'/f/!>!e'/f/ | %37
!<(! !>!e'/e/!>!d'/e/ !>!d'/e/!>!c'/e/ !>!b/e/!>!a/e/!<)! | %38
!mf! !>!b'/b/!>!a'/b/ !>!a'/b/!>!g'/b/ !>!g'/b/!>!d'/b/!8va)! | !>!.b!>!.a !>!.a!>!.g !>!.g!>!.d | %40
 !>!.B!>!.A !>!.A!>!.G !>!.G!>!.D |!<(! z2 [Dd]2 [Ee]2!<)! |!f! [Gg]2 [Ff]3 [Aa] | [Ff]6 | %44
 [Ee]2 [Dd]2 [Ff]2 | A4 F/A/d | [Ee]2 [Ff]2 [Aa]2 |!8va(! [dd']6 | [dd']2 [ee']3 [ff'] | %49
 [ed'e']4 [cc']2 | [Aa]2 [Bb]2 [dd']2 | !arpeggio![bb']a' a'2 [gf']2 | d'3 e' [aa']2 | %53
[M:4/4] !arpeggio![gf']e' e'2!8va)! z ABf |[M:3/4]!>(! [Ff]2 F2 F2!>)! | fe de Bd | [Fd]6 | %57
!>(! FE DA, B,D!>)! |[M:2/4]!mf! [CF]3 F |[M:3/4] [GB]6 | dA _cA cA | FA DF A_c | %62
[M:4/4]"^rit."[Q:1/4=85]!>(! gfdA dfa_c'!>)! |!mp! [dd']6 z2 | %64
[K:D][Q:1/4=120] !>!d/D/!>!A/D/ !>!d/D/!>!e/D/ !>!c/D/!>!A/D/ !>!c/D/!>!d/D/ | %65
!<(! !>!B/D/!>!A/D/ !>!A/D/!>!G/D/ !>!G/D/!>!F/D/ !>!E/D/!>!D/D/!<)! | %66
!mf! !>!d/D/!>!A/D/ !>!d/D/!>!e/D/ !>!c/D/!>!A/D/ !>!c/D/!>!d/D/ | %67
!<(! !>!B/D/!>!A/D/ !>!A/D/!>!G/D/ !>!G/D/!>!F/D/ !>!E/D/!>!D/D/!<)! | %68
!f!!8va(! .d'.a.d'.e' .c'.a.c'.d' | .b.a.a.g .g.f.e.d | .d'.a.d'.e' .c'.a.c'.d' | %71
!mp!!<(! .b.a.a.g .g.f.e.d!8va)!!<)! |!ff!!>(! DDD!>)!D!mf! DDDD | DDDD DDDD | DDDD DDDD | %75
 DDDD DEDC | z2 !>![B,B]2 !>![B,B]2 !>![Cc]2 | !>![Cc]3 !>!A !>!F4 | %78
 z2 !>![B,B]2 !>![B,B]2 !>![Cc]2 | !>![Cc]2 !>!B!>!A !>!F4 | %80
 !>![Dd]/B/F/D/ F/D/F/B/ !>![Dd]/B/G/D/ G/D/G/B/ | %81
 !>![Ee]/c/A/E/ A/c/!>![Ff]/c/ !>![Ff]/d/A/F/ A/F/A/d/ | z2 !>!A2 !>![Ff]2 !>![Aa]2 | %83
 !>![Ee]/c/A/E/ A/c/!>![Ff]/c/ !>![Ff]/d/A/F/ A/F/A/d/ | %84
 !>![Bb]2 !>![Bb]!>![Aa] !>![Ff]2 !>![Ff]!>![Ee] | !>![Ee]3 !>![Ff] !>!B2 !>!B!>!c | %86
 !>![Dd]3 !>!e !>!d!>!c!>!B!>!A |[K:E] !>![B,B]3 a fgef | eBef dBde | cBBA AGFE |[M:2/4] AG FE || %91
[K:Eb][M:3/4][Q:1/4=95] E6 |!>(! E2 F2 G2!>)! |!mp! F4 E2 | C4 B,2 | C6 | E2 F2 G2 | B4- Bc | %98
 B4 A2 | G2 G2 A2 | B3 A G2 | F4 E2 | C6- | C4 EF | G4 FE | C4 DC | B,4 ED | C4 B,2 | B,2 E2 D2 | %109
 =B,4 G2 | =B6 | d2 =B2 A2 |!<(! [Gg]2 [Ff]2 [Ee]2!<)! |!f! [Gg]3 [Aa] [Gg]2 | [Ff]2 [Ee]2 [Gg]2 | %115
 [Ff]6- | [Ff]2 [Ee]2 [Dd]2 | [Cc]6- | [Cc]2 [B,B]2 [Cc]2 | [Ee]4 [Ff]2- | [Ff]2!>(! ed ef!>)! | %121
!mp! G3 A G2 | F2 E2 G2 | F6- | F2 E2 D2 | C6- | C2 B,2 C2 | E4 F2- || %128
[K:C][M:4/4][Q:1/4=86]!<(! F6 z F/D/!<)! |!mf! z A,/D/ AD cDAG | z GAc (3B/c/B/A GE | %131
 A2 z [Dd] [Dd]2 [ce]2 | dc[FG]E D4 | [FA]2 [EA]>G [FA]3 B | c2 dB A2 ^C2 | A2 z d d2 fe | %136
 dc A2 [EG]C (3D/E/D/C | G2 GA [Dd]F_Be | fAgc a2 gc | [Ad]8 |[K:E][Q:1/4=120]!p!!<(! z !>!B!<)! | %141
!mf! !>!e!>!B!>!e!>!f !>!d!>!B!>!d!>!e |!<(! !>!c!>!B!>!B!>!A !>!A!>!G!>!F!>!E!<)! | %143
!f!!8va(! !>!e'!>!b!>!e'!>!f' !>!d'!>!b!>!d'!>!e' |!<(! !>!c'!>!b!>!b!>!a !>!a!>!g!>!f!>!e!<)! | %145
!ff! !>!e'!>!b!>!e'!>!f' !>!d'!>!b!>!d'!>!e' |!<(! !>!c'!>!b!>!b!>!a !>!a!>!g!>!f!>!e!8va)!!<)! | %147
!>(! EEE!>)!E!mf! EEEE | EEEE EEEE | EEEE EEEE | EEEE EFED | z2 !>![Cc]2 !>![Cc]2 !>![Dd]2 | %152
 !>![Dd]3 !>!B !>!G4 | z2 !>![Cc]2 !>![Cc]2 !>![Dd]2 | !>![Dd]2 !>!c!>!B !>!G4 | %155
 !>![Ee]4 !>![Ee]4 | !>![Ff]3 !>![Gg] !>![Gg]4 | z2 !>!B2 !>![Gg]2 !>![Bb]2 | %158
 !>![Ff]3 !>![Gg] !>![Gg]4 | !>![cc']2 !>![cc']!>![Bb] !>![Gg]2 !>![Gg]!>![Ff] | %160
 !>![Ff]3 !>![Gg] !>!c2 !>!c!>!d | !>![Ee]3 !>!f !>!e!>!d!>!c!>!B | %162
 !>![B,B]3 a !>!f/g/!>!e/f/ !>!g/e/!>!f/g/ | !>![Ee]/c/G/E/ G/E/G/c/ !>![Ee]/c/A/E/ A/E/A/c/ | %164
 !>![Ff]/d/B/F/ B/d/!>![Gg]/d/ !>![Gg]4 | z2 !>!B2 !>![Gg]2 !>![Bb]2 | !>![Ff]3 !>![Gg] !>![Gg]4 | %167
 !>![cc']2 !>![cc']!>![Bb] !>![Gg]2 !>![Gg]!>![Ff] | !>![Ff]3 !>![Gg] !>!c2 !>!c!>!d | %169
 !>![Ee]3 !>!f !>!e!>!d!>!c!>!B | !>![Be]Bef dBde | cBBA AGFE | AGFE- E2 !>![Ee]2- | %173
 !fermata![Ee]8 |] %174
V:2
 z2 | z6 |!p!!ped! B,6 |!ped! F,2!ped-up! B,4 |!ped! B,6!ped-up! | F,2 B,2 A,2 | [D,G,]6 | B,6 | %8
!ped! [F,A,]6!ped-up! |!ped! F,4!ped-up! D2 |!ped! E,!ped-up!B, E4 |!ped! G,!ped-up!D G4 | %12
!ped! E,!ped-up!B, E4 | z6 |[M:2/4]!mp!!ped! B,,F, B,2- | x2!ped-up![M:3/4]!ped! B,6!ped-up! | %16
!ped! F,2!ped-up!!ped! B,,4!ped-up! |!ped! B,,6!ped-up! |!ped! F,,2!ped-up! B,,2 A,,2 | %19
!ped! G,,!ped-up!D, G,D, B,,D, |!ped! E,,!ped-up!B,,!ped! E,!ped-up!B,, G,,B,, | %21
!ped! [F,,F,]6!ped-up! |!ped! [F,,F,]2!ped-up! F,,F, G,,A,, | E,,!ped!B,, E,G,, E,!ped-up!B,, | %24
!ped! G,,!ped-up!D, G,G, D,2 |!ped! E,!ped-up!B, E4 |!ped! E,!ped-up!B, E4 | %27
!ped! [D,,D,]!ped-up![E,,E,] [E,,E,]4 |!ped! B,!ped-up!D [E,E]4 | z6 | %30
[K:Ab]!ped! A,,E,!ped-up! A,4 |!ped! G,,!ped-up!D, G,4 |!ped! F,,!ped-up!C, F,4 | %33
!ped! E,,!ped-up!B,, E,4 |!ped! A,,!ped-up!E, A,4 |!ped! G,,!ped-up!D, G,4 | %36
!ped! F,,!ped-up!C, F,4 |!ped! E,,!ped-up!B,, E,4 |!ped! B,,!ped-up!F, B,4 | %39
!8va(!!ped! z/!ped-up! B/ z/ B/ z/ B/ z/ B/ z/ B/ z/ B/!8va)! | %40
!ped! z/!ped-up! B,/ z/ B,/ z/ B,/ z/ B,/ z/ B,/ z/ B,/ | %41
!ped! B,/!ped-up!B,,/A,/B,,/ A,/B,,/G,/B,,/ G,/B,,/D,/B,,/ | %42
!ped! A,,!ped-up!D,!ped! F,!ped-up!D, A,,D, |!ped! A,,!ped-up!D, F,D, F,A, | F,D, A,,D, A,,D, | %45
 A,,D, F,A, z2 |!ped! [A,,A,]2!ped-up! [D,D]2 [C,C]2 |!ped! [B,,B,]!ped-up!F, B,F, B,F, | %48
!ped! B,,!ped-up!F,!ped! B,!ped-up!F, B,F, |!ped! [A,,A,]2!ped-up! [A,,A,]4 | A,,E, A,E, A,E, | %51
!ped! G,,!ped-up!D, G,D, G,D, |!ped! B,,!ped-up!F, B,F, B,F, |[M:4/4] B,,2 [B,,B,]6 | %54
[M:3/4]!ped! D,A,,!ped-up! A,D, A,D, |!ped! D,!ped-up!A, DA, DA, |!ped! D,!ped-up!A, DA, DA, | %57
!ped! D,!ped-up!A,, D,F, D,F, |[M:2/4]!ped! A,,!ped-up!C, F,A, |[M:3/4] [B,,B,]6 | [D,D]6 | %61
 D,2 D,2 D,2 |[M:4/4] D,2 D,2 D,2 D,2 | [D,D]6 z2 |[K:D]!ped! z8!ped-up! |!ped! z8!ped-up! | %66
!ped! [D,A,]8-!ped-up! |!ped! [D,A,]8!ped-up! |!ped! !>![D,,D,]6!ped-up! A,,2 | %69
!ped! [A,,D,F,]4!ped-up! [G,,G,][F,,F,][E,,E,][D,,D,] |!ped! !>![D,,D,]6!ped-up! A,,2 | %71
 [A,,A,][A,,A,][A,,A,][A,,A,] [A,,A,][A,,A,][A,,A,][A,,A,] | %72
!ped! D,/A,/!ped-up!F,/A,/ D,/A,/F,/A,/!ped! D,/!ped-up!A,/G,/A,/ D,/A,/G,/A,/ | %73
!ped! D,/!ped-up!A,/G,/A,/!ped! D,/!ped-up!A,/G,/A,/!ped! D,/!ped-up!A,/F,/A,/ D,2 | %74
!ped! !>![D,,D,]2!ped-up!!ped! D,/!ped-up!A,/F,/A,/!ped! D,/!ped-up!A,/G,/A,/ D,/A,/G,/A,/ | %75
!ped! D,/!ped-up!A,/G,/A,/!ped! D,/!ped-up!A,/G,/A,/!ped! D,/!ped-up!A,/F,/A,/ D,2 | %76
!ped! !>![D,,D,]2!ped-up! D,/A,/F,/A,/ D,/A,/F,/A,/ D,/A,/G,/A,/ | %77
!ped! D,/!ped-up!A,/G,/A,/ D,/A,/G,/A,/ D,/A,/F,/A,/ D,2 | %78
!ped! !>![D,,D,]2!ped-up! D,/A,/F,/A,/ D,/A,/F,/A,/ D,/A,/G,/A,/ | %79
!ped! D,/!ped-up!A,/G,/A,/ D,/A,/F,/A,/ D,/A,/F,/A,/ D,2 | %80
!ped! !>![D,,D,]!ped-up!F,,A,,D,!ped! D,,!ped-up!F,,A,,D, | %81
!ped! D,,!ped-up!F,,A,,!ped!D,!ped-up! D,,F,,A,,D, |!ped! !>![D,,D,]!ped-up!F,,A,,D, D,,F,,A,,D, | %83
!ped! D,,!ped-up!F,,A,,!ped!D,!ped-up! D,,F,,A,,D, | %84
!ped! [D,,D,]!ped-up!F,,A,,D,!ped! D,,!ped-up!F,,A,,D, | %85
!ped! [D,,D,]!ped-up!F,,A,,D,!ped! D,,!ped-up!F,,A,,D, | %86
!ped! D,,!ped-up!F,,A,,!ped!D,!ped-up! D,,F,,A,,D, |[K:E] !>![E,,E,]G,,B,,E, E,,G,,B,,E, | %88
 [E,,E,]8- | [E,,E,]8 |[M:2/4]!ped! A,!ped-up!G, F,E, ||[K:Eb][M:3/4] z6 | C,2 D,2 E,2 | A,,6 | %94
 F,,6 | C,6 | C,2 D,2 E,2 | E,4- E,C, | D,4 A,,2 | E,4 A,2 | B,3 A, G,2 | F,4 E,2 | C,6- | %103
 C,4 E,F, | G,4 F,E, | C,4 D,C, | B,,4 E,D, | C,4 B,,2 | B,,2 E,2 D,2 | =B,,4 G,2 | [=B,,=B,]6 | %111
 D,2 G,2 F,2 |!ped! G,2 F,4!ped-up! |!ped! G,6!ped-up! |!ped! E,6!ped-up! |!ped! F,4!ped-up! A,2 | %116
!ped! E,6!ped-up! |!ped! E,4!ped-up! G,2 |!ped! C,6!ped-up! |!ped! C,4!ped-up!!ped! B,,2-!ped-up! | %120
 B,,2 G,2 B,E, | G,6 | E,6 | F,4 A,2 | E,6 | E,4 G,2 | C,6 | C,4 B,,2 || %128
[K:C][M:4/4] z2 G,2 D,F,D z | D,4 [D,A,]4 | [D,C]3 F, A,E, A,,2 | D,C,/A,/ F,C, _B,,F,D,F, | %132
 C,3 C, G,,D, B,,2 | _B,,F, C,2 [C,F,]4 | C,2 [B,,D,]2 A,,4 | D,A,,/D,/ A,C, _B,,F,D,A, | %136
 C,2 _B,,2 [C,G,]4 | F,2 E,2 [_B,,F,]4 | D,2 E,2 [_B,,F,]4 | [E,E]6 z2 | %140
[K:E] E,/4B,/4E,/4B,/4E,/4B,/4E,/4B,/4 | [E,B,]8- | [E,B,]8 |!ped! !>![E,,E,]6!ped-up! B,,2 | %144
!ped! [B,,E,G,]4!ped-up! [A,,A,][G,,G,][F,,F,][E,,E,] |!ped! !>![E,,E,]6!ped-up! B,,2 | %146
 [B,,B,][B,,B,][B,,B,][B,,B,] [B,,B,][B,,B,][B,,B,][B,,B,] | %147
!ped! E,/B,/!ped-up!G,/B,/ E,/B,/G,/B,/!ped! E,/!ped-up!B,/A,/B,/ E,/B,/A,/B,/ | %148
!ped! E,/!ped-up!B,/A,/B,/!ped! E,/!ped-up!B,/A,/B,/!ped! E,/!ped-up!B,/G,/B,/ E,2 | %149
!ped! !>![E,,E,]2!ped-up!!ped! E,/!ped-up!B,/G,/B,/!ped! E,/!ped-up!B,/A,/B,/ E,/B,/A,/B,/ | %150
!ped! E,/!ped-up!B,/A,/B,/!ped! E,/!ped-up!B,/A,/B,/!ped! E,/!ped-up!B,/G,/B,/ E,2 | %151
!ped! !>![E,,E,]2!ped-up!!ped! E,/!ped-up!B,/G,/B,/ E,/B,/G,/B,/!ped! E,/!ped-up!B,/A,/B,/ | %152
!ped! E,/!ped-up!B,/A,/B,/ E,/B,/A,/B,/!ped! E,/!ped-up!B,/G,/B,/ E,2 | %153
!ped! !>![E,,E,]2!ped-up! E,/B,/G,/B,/ E,/B,/G,/B,/!ped! E,/!ped-up!B,/A,/B,/ | %154
 E,/B,/A,/B,/ E,/B,/G,/B,/!ped! E,/!ped-up!B,/G,/B,/ E,2 | %155
!ped! !>![E,,E,]G,,B,,E,!ped! E,,!ped-up!G,,!ped-up!B,,E, | %156
!ped! E,,!ped-up!G,,B,,E,!ped! E,,!ped-up!G,,B,,E, | %157
!ped! !>![E,,E,]!ped-up!G,,!ped!B,,!ped-up!E,!ped! E,,!ped-up!G,,!ped!B,,!ped-up!E, | %158
!ped! E,,!ped-up!G,,B,,E,!ped! E,,!ped-up!G,,B,,E, | %159
!ped! [E,,E,]!ped-up!G,,B,,E,!ped! E,,!ped-up!G,,B,,E, | %160
!ped! [E,,E,]!ped-up!G,,B,,E,!ped! E,,!ped-up!G,,B,,E, | %161
!ped! E,,!ped-up!G,,B,,!ped!E,!ped-up! E,,G,,B,,E, | !>![E,,E,]G,,B,,E, E,,G,,B,,E, | %163
!ped! E,,!ped-up!G,,B,,E,!ped! E,,!ped-up!G,,B,,E, | %164
!ped! E,,!ped-up!G,,B,,!ped!E,!ped-up! E,,G,,B,,E, | %165
!ped! !>![E,,E,]G,,!ped!B,,!ped-up!E,!ped! E,,!ped-up!G,,B,,E, | %166
!ped! E,,!ped-up!G,,B,,E,!ped! E,,!ped-up!G,,B,,E, | %167
!ped! E,,!ped-up!G,,B,,E,!ped! E,,!ped-up!G,,B,,E, | %168
!ped! E,,!ped-up!G,,B,,E,!ped! E,,!ped-up!G,,B,,E, |!ped! E,,!ped-up!G,,B,,E, E,,G,,B,,E, | %170
 [E,,E,]8- | [E,,E,]8 | A,G,F,E,- .[E,,E,]2 !>![E,,E,]2- | [E,,E,]8 |] %174
V:3
 x2 | x6 | x6 | x6 | x6 | x6 | x6 | x6 | x6 | x6 | x6 | x6 | x6 | x6 |[M:2/4] x4 |[M:3/4] x6 | x6 | %17
 x6 | x6 | x6 | x6 | x6 | x6 | x6 | x6 | x6 | x6 | x6 | x6 |!8va(! x6 |[K:Ab] x6 | x6 | x6 | x6 | %34
 x6 | x6 | x6 | x6 | x6!8va)! | x6 | x6 | x6 | x6 | x6 | x6 | x6 | x6 |!8va(! x6 | x6 | x6 | x6 | %51
 x6 | x6 |[M:4/4] x4!8va)! x4 |[M:3/4] x6 | x6 | x6 | x6 |[M:2/4] x4 |[M:3/4] x6 | x6 | x6 | %62
[M:4/4] x8 | x8 |[K:D] x8 | x8 | x8 | x8 |!8va(! x8 | x8 | x8 | x8!8va)! | !>!F4 !>!G4 | %73
 !>!E2 !>!G2 !>!F4 | x2 !>!F2 !>!G4 | !>!E2 !>!G2 !>!F4 | x8 | x8 | x8 | x8 | x8 | x8 | x8 | x8 | %84
 x8 | x8 | x8 |[K:E] x8 | x8 | x8 |[M:2/4] x4 ||[K:Eb][M:3/4] x6 | x6 | x6 | x6 | x6 | x6 | x6 | %98
 x6 | x6 | x6 | x6 | x6 | x6 | x6 | x6 | x6 | x6 | x6 | x6 | x6 | x6 | x6 | x6 | x6 | x6 | x6 | %117
 x6 | x6 | x6 | x6 | x6 | x6 | x6 | x6 | x6 | x6 | x6 ||[K:C][M:4/4] x8 | x8 | x8 | x8 | x8 | x8 | %134
 x8 | x8 | x8 | x8 | x8 | x8 |[K:E] x2 | x8 | x8 |!8va(! x8 | x8 | x8 | x8!8va)! | !>!G4 !>!A4 | %148
 !>!F2 !>!A2 !>!G4 | x2 !>!G2 !>!A4 | !>!F2 !>!A2 !>!G4 | x8 | x8 | x8 | x8 | x8 | x8 | x8 | x8 | %159
 x8 | x8 | x8 | x8 | x8 | x8 | x8 | x8 | x8 | x8 | x8 | x8 | x8 | x8 | x8 |] %174

